!!! OTL: Berkowitz411
!!! Chapter: 1
!!! Section: III
!!! Page: 102
!!! Mode: 
!!! Encoder: DJB
**kern
*staff1
*I"Piano
=1-
*clefC4
*k[f#]
*e:
*M6/8
4E/
8B\
8G/L
16F#/L
16G/
16A/
16B/JJ
=2
4c\
16d\LL
16c\JJ
8B\L
8e\
8f#\J
=3
4g\
8e\
8.c\L
16B\L
16A\
16c\JJ
=4
4B\
8G/
4B\
8F#/
=5
4G/
8B\
8d\L
16e\L
16d\
16c\
16B\JJ
=6
4A\
8e\
4d\
8c\
=7
!!linebreak:original
8B/L
8G/
8E/J
8.A\L
16c\L
16B\
16A\JJ
=8
8.G\L
16B\L
16A\
16G\JJ
8.F#/L
16A/L
16G/
16F#/JJ
=9
2.E/
==
*-
